X:33
T:Martin Wynne's Reel
S:Bernie Waugh
R:Reel
M:4/4
L:1/8
K:B minor
DE|:\
"Bm"FBAF "A"E2FE|"G"DB,B,/B,/B, DB,A,C|"Em"B,EE/E/E "F#m"FEDE|"G"FABc dcBA|
"Bm"FBAF "A"E2FE|"G"DB,B,/B,/B, DB,A,C|"Em"B,EE/E/E "F#m"FEDE|"Bm"FBBA B2AG:|
|:\
"D"FBAF A2FA|"A"B/c/deg "D"fdde|f/f/faf "A"egfe|"G"dBAF "Bm"B2AG|
"D"FBAF A2FA|"A"B/c/deg "D"fddf|bfaf "A"egfe|"G"dBAF "Bm"B4:|

